public/images/rocketmark.svg

<svg id="e2hZuv91PfB1" xmlns="http://www.w3.org/2000/svg" xmlns:xlink="http://www.w3.org/1999/xlink" viewBox="0 0 15 15" shape-rendering="geometricPrecision" text-rendering="geometricPrecision"><path d="M8.34588,13.6273c-.28838.2383-.70765.1126-.85416-.2315l-.70344-1.652c.94759-.3499,1.83483-.8204,2.65568-1.3694c0,0,.2257,1.2692-.05414,1.9979-.18044.4698-.65513.9338-1.04394,1.255ZM3.25141,8.2087l-1.6469-.70055c-.34626-.14729-.47101-.56984-.22874-.85765.32397-.38486.78912-.85256,1.25721-1.03164.72563-.27761,1.98851-.06449,1.98851-.06449-.54924.82043-1.02002,1.70721-1.37008,2.65433ZM12.8903,2.10977c0,0-2.98764-1.279503-6.4038,2.13553C5.1647,5.56643,4.37403,7.02028,3.861,8.29315c-.16899.45245-.05432.94712.27764,1.28494L5.42423,10.857c.33196.3378.82688.4464,1.27955.2775c1.5201-.5793,2.90032-1.47363,4.04992-2.62417c3.4162-3.41444,2.1366-6.40056,2.1366-6.40056ZM8.62311,6.3748c-.47078-.47054-.47078-1.23668,0-1.70722s1.23731-.47054,1.70809,0c.4647.47054.4708,1.23668,0,1.70722s-1.23731.47054-1.70809,0Z" fill="#31d0aa"/><path d="M3.77609,10.3019c-.22638-.2263-.54005-.37341-.8466-.2811-.70243.2114-1.21407.863-1.21407,1.634v1.7062h1.70711c.77139,0,1.42328-.5114,1.63483-1.2134.09232-.3064-.0549-.6199-.28128-.8462l-.99999-.9995Z" fill="#31d0aa"/></svg>

<svg viewBox="0 0 15 15" width="18px" color="success" xmlns="http://www.w3.org/2000/svg" class="sc-8a800401-0 jxRXrI"><path d="M8.34588 13.6273C8.0575 13.8656 7.63823 13.7399 7.49172 13.3958L6.78828 11.7438C7.73587 11.3939 8.62311 10.9234 9.44396 10.3744C9.44396 10.3744 9.66966 11.6436 9.38982 12.3723C9.20938 12.8421 8.73469 13.3061 8.34588 13.6273ZM3.25141 8.2087L1.60451 7.50815C1.25825 7.36086 1.1335 6.93831 1.37577 6.6505C1.69974 6.26564 2.16489 5.79794 2.63298 5.61886C3.35861 5.34125 4.62149 5.55437 4.62149 5.55437C4.07225 6.3748 3.60147 7.26158 3.25141 8.2087ZM12.8903 2.10977C12.8903 2.10977 9.90266 0.830267 6.4865 4.2453C5.1647 5.56643 4.37403 7.02028 3.861 8.29315C3.69201 8.7456 3.80668 9.24027 4.13864 9.57809L5.42423 10.857C5.75619 11.1948 6.25111 11.3034 6.70378 11.1345C8.22388 10.5552 9.6041 9.66087 10.7537 8.51033C14.1699 5.09589 12.8903 2.10977 12.8903 2.10977ZM8.62311 6.3748C8.15233 5.90426 8.15233 5.13812 8.62311 4.66758C9.09389 4.19704 9.86042 4.19704 10.3312 4.66758C10.7959 5.13812 10.802 5.90426 10.3312 6.3748C9.86042 6.84534 9.09389 6.84534 8.62311 6.3748Z"></path><path d="M3.77609 10.3019C3.54971 10.0756 3.23604 9.92849 2.92949 10.0208C2.22706 10.2322 1.71542 10.8838 1.71542 11.6548L1.71542 13.361H3.42253C4.19392 13.361 4.84581 12.8496 5.05736 12.1476C5.14968 11.8412 5.00246 11.5277 4.77608 11.3014L3.77609 10.3019Z"></path></svg>
